www/assets/icons/airline_seat_legroom_normal.svg

<svg xmlns="http://www.w3.org/2000/svg" width="24" height="24" viewBox="0 0 24 24" fill='currentColor'><path d="M4.5 12V3h-2v9c0 2.76 2.24 5 5 5h6v-2h-6c-1.66 0-3-1.34-3-3M20 18h-1.5v-7c0-1.1-.9-2-2-2h-5V3h-6v8c0 1.65 1.35 3 3 3h7v7H20c.83 0 1.5-.67 1.5-1.5S20.83 18 20 18"/></svg>

<svg width="24" height="24" viewBox="0 0 24 24" xmlns="http://www.w3.org/2000/svg" fill='currentColor'><path d="M4.5 12V3H2.5V12C2.5 14.76 4.74 17 7.5 17H13.5V15H7.5C5.84 15 4.5 13.66 4.5 12ZM20 18H18.5V11C18.5 9.9 17.6 9 16.5 9H11.5V3H5.5V11C5.5 12.65 6.85 14 8.5 14H15.5V21H20C20.83 21 21.5 20.33 21.5 19.5C21.5 18.67 20.83 18 20 18Z"/></svg>
